src/game/GamePart/ModalWindow/img/trophy.svg

<svg width="111" height="111" viewBox="0 0 111 111" fill="none" xmlns="http://www.w3.org/2000/svg">
<g clip-path="url(#clip0)">
<path d="M110.996 21.1842C110.886 11.7633 106.064 6.5747 97.4206 6.5747C94.075 6.5747 90.8512 7.35343 88.7437 8.00317C88.9536 4.15243 88.9568 1.77547 88.9568 1.65731L88.9571 0.00878906H22.0447V1.6571C22.0447 1.71346 22.0503 4.12793 22.2625 8.00512C20.1553 7.35495 16.9285 6.5747 13.5796 6.5747C4.93591 6.5747 0.114564 11.7631 0.00399767 21.1842C-0.104834 30.4523 2.00894 38.7023 6.28612 45.7054C10.4855 52.5812 15.8529 56.7244 19.6163 58.9888C25.6439 62.6163 31.6681 63.3776 35.6606 63.3776C36.6448 63.3776 37.5931 63.3313 38.48 63.2398C38.5388 63.2337 38.5932 63.2267 38.6506 63.2205C40.581 65.2993 42.662 66.9645 44.8857 68.202C46.5249 69.1141 47.6651 70.7047 48.0557 72.533C45.8455 73.2209 44.2362 75.2859 44.2362 77.7194C44.2362 80.2076 45.9192 82.309 48.2057 82.9485V89.8665H39.2863V97.0861H30.4843V110.997H80.5169V97.0861H71.715V89.8665H62.7955V82.9485C65.0823 82.3088 66.7653 80.2076 66.7653 77.7194C66.7653 75.2856 65.156 73.2209 62.9458 72.533C63.3364 70.7047 64.4764 69.1143 66.1158 68.202C68.334 66.9678 70.4294 65.2935 72.355 63.2213C73.0372 63.297 74.0603 63.3774 75.3394 63.3774C75.3398 63.3774 75.3396 63.3774 75.3403 63.3774C79.3324 63.3774 85.3563 62.6156 91.3834 58.9886C95.1466 56.7239 100.514 52.5809 104.714 45.7052C108.991 38.7023 111.105 30.4521 110.996 21.1842ZM85.6331 3.3054C85.6184 3.90831 85.595 4.66624 85.559 5.55337H25.4492C25.4119 4.66645 25.387 3.90745 25.371 3.3054H85.6331ZM87.8752 18.4406C90.1087 17.6972 93.0034 16.9476 95.5965 16.9476C97.7707 16.9476 99.3362 17.4787 100.25 18.5263C101.299 19.7304 101.638 21.7531 101.255 24.5389C99.6608 36.1432 94.6291 45.2014 87.0863 50.0444C84.459 51.7315 81.6293 52.4285 79.258 52.6761C84.274 42.1331 86.7017 28.905 87.8752 18.4406ZM24.8223 29.9229C26.4437 38.6197 28.6823 46.0879 31.4764 52.1198C31.5629 52.3071 31.6509 52.4916 31.7385 52.6761C29.3681 52.4279 26.5402 51.7311 23.9139 50.0449C16.3713 45.2016 11.3394 36.1436 9.74533 24.5394C9.36268 21.7533 9.70089 19.7304 10.7508 18.5267C11.6642 17.4791 13.2299 16.9482 15.4039 16.9482C17.9992 16.9482 20.8965 17.699 23.1308 18.4428C23.5299 22.0117 24.0756 25.9182 24.8223 29.9229ZM35.6606 60.081C32.086 60.081 26.6954 59.4014 21.3164 56.1644C15.8152 52.8539 3.04696 42.8218 3.30061 21.223C3.39036 13.5846 6.75267 9.87153 13.5796 9.87153C17.2307 9.87153 20.8367 10.9722 22.485 11.5528C22.5671 12.6587 22.6593 13.7678 22.7612 14.8724C20.5206 14.2142 17.8806 13.6509 15.4039 13.6509C12.2348 13.6509 9.83335 14.5621 8.26591 16.3594C6.5621 18.3134 5.96093 21.2163 6.47907 24.9875C7.36664 31.4482 9.22155 37.1587 11.9924 41.9599C14.6376 46.5434 18.0493 50.1968 22.1325 52.8183C26.1207 55.3794 30.4343 56.0252 33.5113 56.087C33.5217 56.1052 33.5323 56.1225 33.5427 56.1405C33.7114 56.436 33.8818 56.7265 34.0539 57.0134C34.1074 57.1029 34.1614 57.1918 34.2154 57.2804C34.3795 57.5501 34.5449 57.8172 34.7121 58.0789C34.775 58.1773 34.8387 58.2734 34.902 58.3709C35.0158 58.5459 35.1303 58.7193 35.2456 58.8908C35.3571 59.0567 35.4689 59.2208 35.5814 59.3832C35.6918 59.5421 35.8024 59.7001 35.9138 59.856C35.966 59.9293 36.0174 60.0054 36.0697 60.0778C35.937 60.0799 35.8006 60.081 35.6606 60.081ZM77.2205 100.383V107.701H33.7814V100.383H39.2865H71.7152H77.2205ZM62.796 93.1636H68.4184V97.0863H42.5833V93.1636H48.206H62.796ZM51.5026 89.8667V83.1499H59.4991V89.8667H51.5026V89.8667ZM63.4689 77.7194C63.4689 78.896 62.5115 79.8531 61.3352 79.8531H49.6667C48.4902 79.8531 47.533 78.896 47.533 77.7194C47.533 76.5429 48.4902 75.5857 49.6667 75.5857H61.3352C62.5117 75.5857 63.4689 76.5429 63.4689 77.7194ZM71.7145 58.8746C71.6963 58.8982 71.6781 58.9218 71.6599 58.9454C71.4978 59.1553 71.3343 59.36 71.17 59.5618C71.1296 59.611 71.09 59.6611 71.0494 59.7101C70.8688 59.9295 70.6867 60.1441 70.5037 60.3535C70.4948 60.3635 70.4866 60.3739 70.4777 60.3839C68.6395 62.481 66.6328 64.1419 64.5132 65.3212C61.9006 66.7746 60.1242 69.356 59.6355 72.2889H51.3664C50.8776 69.3558 49.1011 66.7746 46.4885 65.3212C44.4428 64.1833 42.5953 62.662 40.9261 60.8442L40.5229 60.3841C38.8839 58.5149 37.339 56.2502 35.9314 53.6537L35.5002 52.8578C28.4115 39.1612 26.2674 19.3653 25.6209 8.84998H85.3929C85.3654 9.30742 85.3352 9.77982 85.3019 10.2704C85.3003 10.2932 85.2986 10.3166 85.2971 10.3394C85.2607 10.871 85.2216 11.4041 85.1802 11.9376C85.1792 11.9532 85.1778 11.9688 85.1768 11.9846C85.045 13.6757 84.8889 15.373 84.7109 17.0501L84.6031 18.0643C83.4053 28.8018 80.8755 42.481 75.5408 52.785L75.0697 53.6534C74.0215 55.5864 72.8972 57.3351 71.7145 58.8746ZM89.684 56.1644C84.3046 59.4016 78.915 60.081 75.3407 60.081C75.3405 60.081 75.34 60.081 75.3398 60.081C75.1996 60.081 75.0632 60.0799 74.9303 60.0778C74.9325 60.0747 74.9346 60.0715 74.9368 60.0685C75.1508 59.7732 75.3615 59.4736 75.569 59.1698C75.5943 59.1328 75.6193 59.0948 75.6446 59.0577C75.82 58.7993 75.9928 58.5374 76.1637 58.2729C76.2077 58.2051 76.2517 58.137 76.2953 58.0687C76.4843 57.7719 76.6714 57.4732 76.8548 57.1692C76.8836 57.1218 76.9116 57.073 76.9402 57.0251C77.0905 56.774 77.239 56.5206 77.3855 56.2648C77.4198 56.2049 77.4551 56.1477 77.4896 56.0874C80.5666 56.0256 84.8802 55.3798 88.8684 52.8188C92.9515 50.1968 96.3633 46.5434 99.0084 41.9603C101.779 37.1591 103.634 31.4487 104.522 24.9879C105.039 21.2165 104.439 18.3136 102.735 16.3598C101.168 14.5624 98.766 13.6512 95.5969 13.6512C93.1204 13.6512 90.4801 14.214 88.2397 14.8724C88.3435 13.7461 88.4326 12.6658 88.5089 11.6391C88.5111 11.6105 88.5135 11.5816 88.5157 11.5532C90.1644 10.9724 93.7702 9.87196 97.421 9.87196C104.248 9.87196 107.61 13.585 107.7 21.223C107.953 42.8218 95.1852 52.8537 89.684 56.1644Z" fill="#243555"/>
<path d="M41.7011 53.3833L38.9478 55.1972C39.8878 56.6244 40.8981 57.9211 41.9506 59.051L44.3631 56.8037C43.4359 55.8084 42.5403 54.6574 41.7011 53.3833Z" fill="#243555"/>
<path d="M34.6254 35.1042L31.4111 35.8375C32.992 42.7674 35.1025 48.5849 37.6837 53.1283L40.5502 51.4997C38.1281 47.2364 36.1347 41.7202 34.6254 35.1042Z" fill="#243555"/>
<path d="M96.1856 72.3037L96.1832 69.0069L93.4002 69.0086L93.3982 66.2256L90.1014 66.2278L90.1033 69.011L87.3203 69.0129L87.3225 72.3098L90.1055 72.3078L90.1075 75.0906L93.4043 75.0885L93.4023 72.3054L96.1856 72.3037Z" fill="#243555"/>
<path d="M24.4507 89.4235L24.4472 86.1266L22.1119 86.129L22.1095 83.7935L18.8126 83.7969L18.815 86.1323L16.4792 86.1346L16.4829 89.4315L18.8183 89.4291L18.8207 91.7649L22.1175 91.7614L22.1151 89.4258L24.4507 89.4235Z" fill="#243555"/>
<path d="M13.7003 62.4724H10.5903V65.7692H13.7003V62.4724Z" fill="#243555"/>
<path d="M33.6866 72.2266H30.5767V75.5234H33.6866V72.2266Z" fill="#243555"/>
<path d="M83.8126 82.1453H80.7026V85.4421H83.8126V82.1453Z" fill="#243555"/>
</g>
<defs>
<clipPath id="clip0">
<rect width="111" height="111" fill="white"/>
</clipPath>
</defs>
</svg>

<svg width="111" height="111" fill="none" xmlns="http://www.w3.org/2000/svg"><g clip-path="url(#clip0)" fill="#243555"><path d="M110.996 21.184c-.11-9.42-4.932-14.61-13.575-14.61-3.346 0-6.57.78-8.677 1.43.21-3.852.213-6.229.213-6.347V.01H22.045v1.648c0 .056.005 2.47.217 6.348-2.107-.65-5.334-1.43-8.682-1.43-8.644 0-13.465 5.188-13.576 14.61-.109 9.267 2.005 17.517 6.282 24.52a39.67 39.67 0 0 0 13.33 13.284c6.028 3.627 12.052 4.389 16.045 4.389.984 0 1.932-.047 2.819-.138l.17-.02c1.931 2.08 4.012 3.745 6.236 4.982 1.639.912 2.78 2.503 3.17 4.331a5.44 5.44 0 0 0-3.82 5.186 5.439 5.439 0 0 0 3.97 5.23v6.918h-8.92v7.22h-8.802v13.91h50.033v-13.91h-8.802v-7.22h-8.92v-6.919a5.44 5.44 0 0 0 3.97-5.229 5.44 5.44 0 0 0-3.82-5.186c.391-1.828 1.531-3.419 3.17-4.331 2.219-1.234 4.314-2.909 6.24-4.98.682.075 1.705.155 2.984.155h.001c3.992 0 10.016-.761 16.043-4.388a39.682 39.682 0 0 0 13.331-13.284c4.277-7.003 6.391-15.253 6.282-24.52zM85.633 3.305c-.015.603-.038 1.361-.074 2.248h-60.11c-.037-.887-.062-1.646-.078-2.248h60.262zm2.242 15.136c2.234-.744 5.128-1.493 7.722-1.493 2.174 0 3.74.53 4.653 1.578 1.049 1.204 1.388 3.227 1.005 6.013-1.594 11.604-6.626 20.662-14.169 25.505-2.627 1.688-5.457 2.385-7.828 2.632 5.016-10.543 7.444-23.771 8.617-34.235zM24.822 29.923c1.622 8.697 3.86 16.165 6.654 22.197.087.187.175.372.262.556-2.37-.248-5.198-.945-7.824-2.631-7.543-4.843-12.575-13.901-14.169-25.506-.382-2.786-.044-4.809 1.006-6.012.913-1.048 2.479-1.579 4.653-1.579 2.595 0 5.492.751 7.727 1.495.399 3.569.945 7.475 1.691 11.48zM35.661 60.08c-3.575 0-8.966-.68-14.345-3.917-5.5-3.31-18.269-13.342-18.015-34.941.09-7.638 3.452-11.351 10.279-11.351 3.65 0 7.257 1.1 8.905 1.68.082 1.107.174 2.216.276 3.32-2.24-.658-4.88-1.221-7.357-1.221-3.17 0-5.57.911-7.138 2.708-1.704 1.954-2.305 4.857-1.787 8.628.888 6.461 2.743 12.172 5.513 16.973 2.646 4.583 6.057 8.237 10.14 10.858 3.989 2.561 8.302 3.207 11.38 3.269l.03.053a46.854 46.854 0 0 0 1.17 1.939l.19.292a40.694 40.694 0 0 0 1.012 1.485c.052.073.103.15.156.222-.133.002-.27.003-.41.003zm41.56 40.302v7.318H33.78v-7.318H77.221zm-14.425-7.22h5.622v3.923H42.583v-3.922h20.213zm-11.293-3.296V83.15h7.996v6.717h-7.996zm11.966-12.148a2.136 2.136 0 0 1-2.134 2.134H49.667a2.136 2.136 0 0 1-2.134-2.134c0-1.176.957-2.133 2.134-2.133h11.668c1.177 0 2.134.957 2.134 2.133zm8.245-18.844l-.054.07c-.162.21-.326.415-.49.617l-.12.148c-.181.22-.363.434-.546.643-.01.01-.017.02-.026.03-1.838 2.098-3.845 3.759-5.965 4.938-2.612 1.454-4.389 4.035-4.878 6.968h-8.269c-.488-2.933-2.265-5.514-4.877-6.968-2.046-1.138-3.894-2.659-5.563-4.477l-.403-.46c-1.64-1.87-3.184-4.134-4.592-6.73l-.43-.796C28.41 39.16 26.266 19.365 25.62 8.85h59.772c-.028.457-.058.93-.091 1.42l-.005.07a176.56 176.56 0 0 1-.117 1.598l-.003.047a182.41 182.41 0 0 1-.466 5.065l-.108 1.014c-1.198 10.738-3.727 24.417-9.062 34.721l-.471.868c-1.048 1.933-2.173 3.682-3.355 5.222zm17.97-2.71c-5.38 3.237-10.769 3.916-14.343 3.916h-.001c-.14 0-.277-.001-.41-.003l.007-.01c.214-.295.425-.594.632-.898l.076-.112a41.46 41.46 0 0 0 .65-.99c.19-.296.376-.595.56-.899.029-.047.057-.096.085-.144.15-.251.299-.504.445-.76l.105-.178c3.077-.061 7.39-.707 11.378-3.268 4.084-2.622 7.495-6.276 10.14-10.859 2.771-4.8 4.626-10.511 5.514-16.972.517-3.771-.083-6.674-1.787-8.628-1.567-1.798-3.969-2.709-7.138-2.709-2.477 0-5.117.563-7.357 1.221.104-1.126.193-2.206.269-3.233l.007-.086c1.648-.58 5.254-1.681 8.905-1.681 6.827 0 10.189 3.713 10.279 11.351.253 21.599-12.515 31.63-18.016 34.941z"/><path d="M41.701 53.383l-2.753 1.814a29.34 29.34 0 0 0 3.003 3.854l2.412-2.247a26.04 26.04 0 0 1-2.662-3.42zM34.625 35.104l-3.214.733c1.581 6.93 3.691 12.748 6.273 17.291L40.55 51.5c-2.422-4.264-4.415-9.78-5.925-16.396zM96.186 72.304l-.003-3.297-2.783.002-.002-2.783-3.297.002.002 2.783-2.783.002.003 3.297 2.783-.002.002 2.783 3.296-.002-.002-2.784 2.784-.001zM24.45 89.424l-.003-3.297-2.335.002-.002-2.336-3.297.004.002 2.335-2.336.003.004 3.296 2.335-.002.003 2.336 3.296-.004-.002-2.335 2.336-.002zM13.7 62.472h-3.11v3.297h3.11v-3.297zM33.687 72.227h-3.11v3.296h3.11v-3.296zM83.813 82.145h-3.11v3.297h3.11v-3.297z"/></g><defs><clipPath id="clip0"><path fill="#fff" d="M0 0h111v111H0z"/></clipPath></defs></svg>
